svgs/light/square-share-nodes.svg

<svg xmlns="http://www.w3.org/2000/svg" viewBox="0 0 448 512"><!-- Font Awesome Pro 6.0.0-alpha2 by @fontawesome - https://fontawesome.com License - https://fontawesome.com/license (Commercial License) --><path d="M384 32H64C28.654 32 0 60.654 0 96V416C0 451.346 28.654 480 64 480H384C419.346 480 448 451.346 448 416V96C448 60.654 419.346 32 384 32ZM416 416C416 433.645 401.645 448 384 448H64C46.355 448 32 433.645 32 416V96C32 78.355 46.355 64 64 64H384C401.645 64 416 78.355 416 96V416ZM320 224C355.346 224 384 195.346 384 160S355.346 96 320 96S256 124.654 256 160C256 164.596 256.529 169.061 257.451 173.383L176.021 214.1C164.289 200.666 147.236 192 128 192C92.654 192 64 220.654 64 256S92.654 320 128 320C147.236 320 164.289 311.334 176.021 297.9L257.451 338.617C256.529 342.939 256 347.404 256 352C256 387.346 284.654 416 320 416S384 387.346 384 352S355.346 288 320 288C300.764 288 283.711 296.666 271.979 310.1L190.549 269.383C191.471 265.061 192 260.596 192 256S191.471 246.939 190.549 242.617L271.979 201.9C283.711 215.334 300.764 224 320 224ZM320 128C337.645 128 352 142.355 352 160S337.645 192 320 192S288 177.645 288 160S302.355 128 320 128ZM128 288C110.355 288 96 273.645 96 256S110.355 224 128 224S160 238.355 160 256S145.645 288 128 288ZM320 320C337.645 320 352 334.355 352 352S337.645 384 320 384S288 369.645 288 352S302.355 320 320 320Z"/></svg>

<svg xmlns="http://www.w3.org/2000/svg" viewBox="0 0 448 512"><!--! Font Awesome Pro 6.0.0-alpha3 by @fontawesome - https://fontawesome.com License - https://fontawesome.com/license (Commercial License) --><path d="M384 32H64C28.65 32 0 60.65 0 96v320c0 35.35 28.65 64 64 64h320c35.35 0 64-28.65 64-64V96C448 60.65 419.3 32 384 32zM416 416c0 17.64-14.36 32-32 32H64c-17.64 0-32-14.36-32-32V96c0-17.64 14.36-32 32-32h320c17.64 0 32 14.36 32 32V416zM320 224c35.35 0 64-28.65 64-64s-28.65-64-64-64S256 124.7 256 160c0 4.596 .5293 9.061 1.451 13.38L176 214.1C164.3 200.7 147.2 192 128 192C92.65 192 64 220.7 64 256s28.65 64 64 64c19.24 0 36.29-8.666 48.02-22.1l81.43 40.72C256.5 342.9 256 347.4 256 352c0 35.35 28.65 64 64 64s64-28.65 64-64s-28.65-64-64-64c-19.24 0-36.29 8.666-48.02 22.1L190.5 269.4C191.5 265.1 192 260.6 192 256S191.5 246.9 190.5 242.6l81.43-40.72C283.7 215.3 300.8 224 320 224zM320 128c17.64 0 32 14.36 32 32s-14.36 32-32 32s-32-14.36-32-32S302.4 128 320 128zM128 288C110.4 288 96 273.6 96 256s14.36-32 32-32s32 14.36 32 32S145.6 288 128 288zM320 320c17.64 0 32 14.36 32 32s-14.36 32-32 32s-32-14.36-32-32S302.4 320 320 320z"/></svg>
